src/images/icons/apple.svg

<svg viewBox="0 0 512 512" xmlns="http://www.w3.org/2000/svg">
<path d="M251.768 134.398C270.538 134.398 294.058 123.268 308.068 108.398C320.748 94.9978 329.998 76.2178 329.998 57.4378C330.024 55.0215 329.759 52.6108 329.208 50.2578C308.328 50.9478 283.208 62.5378 268.208 78.0678C256.308 89.8878 245.478 108.438 245.478 127.438C245.49 129.624 245.755 131.802 246.268 133.928C248.086 134.231 249.925 134.388 251.768 134.398ZM198.768 428.878C222.768 428.878 233.458 412.878 263.438 412.878C293.918 412.878 300.608 428.428 327.368 428.428C353.638 428.428 371.228 404.238 387.828 380.538C399.294 363.556 408.303 345.04 414.588 325.538C412.858 325.038 362.588 304.538 362.588 247.038C362.588 197.178 402.228 174.708 404.458 172.978C378.188 135.458 338.298 134.478 327.398 134.478C297.908 134.478 273.878 152.248 258.768 152.248C242.408 152.248 220.858 135.458 195.328 135.458C146.768 135.458 97.4584 175.458 97.4584 250.988C97.4584 297.888 115.798 347.498 138.338 379.598C157.628 406.668 174.478 428.878 198.758 428.878H198.768Z" fill="black"/>
</svg>

<svg xmlns="http://www.w3.org/2000/svg" viewBox="0 0 512 512">
  <title>
    apple
  </title>
  <path d="M251.77,134.4c18.77,0,42.29-11.13,56.3-26C320.75,95,330,76.22,330,57.44a30.13,30.13,0,0,0-.79-7.18c-20.88.69-46,12.28-61,27.81-11.9,11.82-22.73,30.37-22.73,49.37a28.33,28.33,0,0,0,.79,6.49A34.64,34.64,0,0,0,251.77,134.4Zm-53,294.48c24,0,34.69-16,64.67-16,30.48,0,37.17,15.55,63.93,15.55,26.27,0,43.86-24.19,60.46-47.89a217.58,217.58,0,0,0,26.76-55c-1.73-.5-52-21-52-78.5,0-49.86,39.64-72.33,41.87-74.06-26.27-37.52-66.16-38.5-77.06-38.5-29.49,0-53.52,17.77-68.63,17.77-16.36,0-37.91-16.79-63.44-16.79-48.56,0-97.87,40-97.87,115.53,0,46.9,18.34,96.51,40.88,128.61C157.63,406.67,174.48,428.88,198.76,428.88Z"/>
</svg>
